X: 833
T: Albert Road
R: reel
M: 4/4
K: Amajor
|:EABc ecBc|ecBA FBAF|EABc eBce|fcec|BAFA|
EABc ecBc|ecBA FBce|fc~c2 afec|1 BAGB A2(3FAF:|2 BAGB A2AB||
|:cffe fece|fcec BAFA|cffe fece|acec BAFA|
cffe fece|fcec ~B2Bd|cA~A2 cefg|1 afec BcAB:|2 1afec BAFA||

